img/bg/cookie_bg.svg

<svg width="221" height="181" viewBox="0 0 221 181" fill="none" xmlns="http://www.w3.org/2000/svg">
<path fill-rule="evenodd" clip-rule="evenodd" d="M130.361 1.52982H130.324V-27.3236H130.341C130.341 -28.6985 130.632 -30.1008 131.253 -31.435L131.394 -31.7304L131.411 -31.7236C132.422 -33.8963 134.216 -35.638 136.431 -36.5987C137.645 -37.1249 138.99 -37.4169 140.399 -37.4169C152.786 -37.3897 164.401 -34.1068 174.415 -28.3897C184.737 -22.4996 193.352 -14.0428 199.364 -3.91581C201.206 -0.941504 201.387 2.91146 199.494 6.14001L199.316 6.44927L199.302 6.43906C198.458 7.88161 197.234 9.13121 195.667 10.0205L170.427 24.4456L145.475 38.7076C143.962 39.6413 142.172 40.1777 140.258 40.1777C138.935 40.1777 137.669 39.9199 136.514 39.4547C132.906 37.9917 130.361 34.481 130.361 30.3801V1.52982ZM135.554 160.926C135.924 160.895 136.287 160.885 136.647 160.892C141.647 161.004 145.865 164.83 146.308 169.878C146.778 175.29 142.728 180.056 137.264 180.521C135.862 180.644 134.027 180.752 131.771 180.851C129.49 180.949 127.655 181 126.27 181C91.4035 181 59.836 167.006 36.9859 144.385C14.1359 121.765 0 90.5146 0 55.9982C0 21.4819 14.1359 -9.76853 36.9859 -32.389C59.836 -55.0094 91.4035 -69 126.27 -69C127.655 -69 129.49 -68.9525 131.771 -68.854C134.027 -68.7556 135.862 -68.6469 137.264 -68.5247C142.728 -68.0562 146.778 -63.2931 146.308 -57.8816C145.859 -52.7552 141.52 -48.8918 136.421 -48.8918C136.133 -48.8918 135.845 -48.902 135.554 -48.9291C133.585 -49.0989 132.038 -49.2075 130.917 -49.255C129.82 -49.3025 128.269 -49.3263 126.27 -49.3263C96.8871 -49.3263 70.2888 -37.5391 51.0361 -18.48C31.7835 0.579254 19.8733 26.9138 19.8733 55.9982C19.8733 85.0862 31.7835 111.417 51.0361 130.477C70.2888 149.536 96.8871 161.326 126.27 161.326C128.269 161.326 129.82 161.303 130.917 161.255C132.038 161.207 133.585 161.095 135.554 160.926ZM172.776 33.0758L198.016 18.6471L198.023 18.6609C199.011 18.0938 200.108 17.6898 201.284 17.4894C205.383 16.6406 209.738 18.44 211.929 22.2321C218.071 32.8176 220.996 44.4217 221 55.9098C221.007 67.789 217.883 79.4775 211.956 89.7235L211.933 89.7102C210.263 92.5957 207.155 94.5581 203.578 94.6395C201.699 94.755 199.765 94.3408 198.016 93.3356L172.776 78.9109L172.786 78.8936L148.098 64.7844C146.407 63.956 144.94 62.6455 143.924 60.9106C141.181 56.2222 142.8 50.2166 147.535 47.5009L172.776 33.0758ZM130.409 139.263V110.412H130.447V81.5586C130.447 77.4813 132.967 73.9847 136.551 72.508C137.721 72.029 139 71.761 140.348 71.761C142.155 71.761 143.849 72.2431 145.307 73.0817L145.313 73.068L170.554 87.4931C170.729 87.5949 170.897 87.7002 171.065 87.8086L195.756 101.922C197.32 102.811 198.548 104.06 199.388 105.503L199.405 105.493L199.584 105.802C201.473 109.03 201.295 112.884 199.453 115.858C193.438 125.985 184.823 134.442 174.504 140.332C164.491 146.049 152.875 149.332 140.485 149.359C139.12 149.359 137.817 149.084 136.634 148.588C134.363 147.638 132.529 145.876 131.496 143.666L131.479 143.672L131.342 143.374C130.721 142.043 130.426 140.641 130.426 139.263H130.409Z" fill="white" fill-opacity="0.3"/>
</svg>

<svg xmlns="http://www.w3.org/2000/svg" width="221" height="181" fill="none"><path fill="#fff" fill-opacity=".3" fill-rule="evenodd" d="M130.361 1.53h-.037v-28.854h.017c0-1.374.291-2.777.912-4.111l.141-.295.017.006a9.875 9.875 0 0 1 5.02-4.875 9.965 9.965 0 0 1 3.968-.818c12.387.027 24.002 3.31 34.016 9.027 10.322 5.89 18.937 14.347 24.949 24.474 1.842 2.974 2.023 6.827.13 10.056l-.178.31-.014-.01a9.794 9.794 0 0 1-3.635 3.58l-25.24 14.426-24.952 14.262a9.906 9.906 0 0 1-5.217 1.47c-1.323 0-2.589-.258-3.744-.723-3.608-1.463-6.153-4.974-6.153-9.075V1.53Zm5.193 159.396c.37-.031.733-.041 1.093-.034 5 .112 9.218 3.938 9.661 8.986.47 5.412-3.58 10.178-9.044 10.643-1.402.123-3.237.231-5.493.33-2.281.098-4.116.149-5.501.149-34.867 0-66.434-13.994-89.284-36.615C14.136 121.765 0 90.515 0 55.998 0 21.482 14.136-9.769 36.986-32.389 59.836-55.009 91.403-69 126.27-69c1.385 0 3.22.047 5.501.146 2.256.098 4.091.207 5.493.33 5.464.468 9.514 5.23 9.044 10.642-.449 5.127-4.788 8.99-9.887 8.99a9.32 9.32 0 0 1-.867-.037c-1.969-.17-3.516-.279-4.637-.326-1.097-.047-2.648-.071-4.647-.071-29.383 0-55.981 11.787-75.234 30.846C31.783.58 19.873 26.914 19.873 55.998c0 29.088 11.91 55.419 31.163 74.479 19.253 19.059 45.851 30.849 75.234 30.849 1.999 0 3.55-.023 4.647-.071 1.121-.048 2.668-.16 4.637-.329Zm37.222-127.85 25.24-14.429.007.014a9.869 9.869 0 0 1 3.261-1.172c4.099-.848 8.454.951 10.645 4.743A66.95 66.95 0 0 1 221 55.91a67.51 67.51 0 0 1-9.044 33.814l-.023-.014a9.901 9.901 0 0 1-8.355 4.93 9.914 9.914 0 0 1-5.562-1.304l-25.24-14.425.01-.017-24.688-14.11a9.829 9.829 0 0 1-4.174-3.873c-2.743-4.689-1.124-10.694 3.611-13.41l25.241-14.425Zm-42.367 106.187v-28.851h.038V81.559c0-4.078 2.52-7.574 6.104-9.051a9.99 9.99 0 0 1 3.797-.747c1.807 0 3.501.482 4.959 1.32l.006-.013 25.241 14.425c.175.102.343.207.511.316l24.691 14.113a9.771 9.771 0 0 1 3.632 3.581l.017-.01.179.309a9.727 9.727 0 0 1-.131 10.056c-6.015 10.127-14.63 18.584-24.949 24.474-10.013 5.717-21.629 9-34.019 9.027a9.944 9.944 0 0 1-3.851-.771 9.885 9.885 0 0 1-5.138-4.922l-.017.006-.137-.298a9.707 9.707 0 0 1-.916-4.111h-.017Z" clip-rule="evenodd"/></svg>
